svg/color/help.svg

<?xml version="1.0" encoding="UTF-8" ?>
<!DOCTYPE svg PUBLIC "-//W3C//DTD SVG 1.1//EN" "http://www.w3.org/Graphics/SVG/1.1/DTD/svg11.dtd">
<svg width="250pt" height="250pt" viewBox="0 0 250 250" version="1.1" xmlns="http://www.w3.org/2000/svg">
<g id="#ffffffff">
<path fill="#ffffff" opacity="1.00" d=" M 0.00 0.00 L 250.00 0.00 L 250.00 250.00 L 0.00 250.00 L 0.00 0.00 M 117.33 7.19 C 113.20 7.66 109.07 8.13 104.96 8.79 C 80.38 12.85 57.27 25.07 39.97 42.98 C 18.54 64.81 6.23 95.38 6.82 125.99 C 7.05 148.46 14.02 170.78 26.57 189.42 C 44.40 216.36 73.81 235.30 105.74 240.33 C 113.12 241.27 120.53 242.58 128.00 242.22 C 141.57 241.19 155.20 239.03 167.90 233.96 C 192.20 224.61 213.25 206.99 226.56 184.59 C 241.49 160.13 246.66 130.00 241.09 101.92 C 237.24 82.62 228.51 64.25 215.76 49.24 C 197.30 27.07 170.39 12.15 141.81 8.27 C 133.70 7.27 125.49 6.05 117.33 7.19 Z" />
<path fill="#ffffff" opacity="1.00" d=" M 122.48 12.45 C 125.34 12.75 128.75 11.46 131.21 13.37 C 128.96 13.43 126.71 13.61 124.45 13.52 C 124.45 15.17 124.44 16.82 124.44 18.46 C 126.70 18.47 128.98 18.54 131.16 19.19 C 128.93 19.48 126.69 19.66 124.44 19.75 C 124.40 21.92 124.40 24.10 124.44 26.27 C 126.71 26.31 128.97 26.45 131.23 26.67 C 128.62 28.53 125.26 27.05 122.39 26.70 C 122.95 21.97 123.75 17.14 122.48 12.45 Z" />
<path fill="#ffffff" opacity="1.00" d=" M 113.39 32.50 C 130.24 30.31 147.65 32.94 163.15 39.87 C 188.18 50.90 207.96 73.51 215.05 99.98 C 220.54 119.23 219.21 140.29 211.73 158.83 C 204.78 176.25 192.33 191.37 176.67 201.66 C 159.54 213.12 138.49 218.52 117.96 216.93 C 94.28 215.29 71.52 204.00 55.61 186.43 C 44.92 174.48 37.05 159.87 33.84 144.10 C 29.27 124.03 31.98 102.49 41.03 84.03 C 54.52 56.22 82.65 36.08 113.39 32.50 M 80.46 72.36 C 79.53 78.87 79.97 85.45 79.91 92.00 C 79.91 113.68 79.92 135.37 79.89 157.05 C 80.09 159.02 79.79 161.32 81.03 162.99 C 84.82 164.34 89.05 163.46 93.01 163.66 C 98.19 163.48 103.41 163.92 108.57 163.37 C 110.35 163.30 110.72 161.40 110.69 159.97 C 111.07 151.10 110.18 142.18 111.15 133.33 C 120.24 133.44 129.34 133.32 138.43 133.58 C 138.81 141.72 138.36 149.88 138.53 158.03 C 138.64 159.79 138.49 161.76 139.69 163.22 C 143.39 164.11 147.24 163.59 151.01 163.64 C 156.88 163.39 162.83 164.08 168.62 162.85 C 168.68 132.72 168.69 102.60 168.61 72.47 C 158.79 71.62 148.84 71.00 139.02 72.13 C 137.95 82.23 138.88 92.40 138.52 102.53 C 129.39 102.49 120.24 103.62 111.14 102.81 C 110.15 92.71 111.18 82.55 110.55 72.44 C 103.77 71.19 96.86 71.74 90.01 71.55 C 86.80 71.45 83.59 71.66 80.46 72.36 M 70.42 169.26 C 70.35 174.70 70.32 180.16 70.53 185.60 C 72.14 185.55 73.75 185.52 75.36 185.48 C 75.35 183.26 75.65 181.05 75.88 178.84 C 77.47 178.90 79.06 178.96 80.65 179.04 C 80.96 181.24 81.04 183.46 81.36 185.66 C 82.92 185.52 84.49 185.38 86.06 185.24 C 86.25 179.93 86.41 174.60 85.94 169.30 C 84.40 169.30 82.87 169.30 81.34 169.29 C 81.18 171.20 80.93 173.09 80.78 175.00 C 79.15 174.98 77.53 174.97 75.90 174.96 C 75.73 173.13 75.49 171.32 75.34 169.49 C 73.70 169.44 72.06 169.32 70.42 169.26 M 89.92 169.33 C 89.16 174.62 89.56 179.98 89.69 185.30 C 94.22 185.55 98.77 185.57 103.31 185.32 C 103.31 184.46 103.30 182.73 103.30 181.87 C 100.17 181.80 97.05 181.62 93.95 181.17 C 94.26 180.64 94.87 179.58 95.18 179.05 C 97.54 178.92 99.91 178.87 102.27 178.77 C 102.28 177.57 102.29 176.37 102.31 175.17 C 99.65 175.07 96.99 175.07 94.35 174.71 C 94.34 174.39 94.33 173.76 94.32 173.45 C 97.28 173.19 100.25 173.23 103.21 173.14 C 103.13 171.86 103.02 170.59 102.88 169.32 C 98.56 169.33 94.24 169.36 89.92 169.33 M 121.12 169.32 C 120.79 174.67 120.81 180.03 120.95 185.39 C 122.59 185.36 124.23 185.34 125.87 185.32 C 126.02 183.71 126.18 182.11 126.35 180.51 C 129.14 180.10 133.18 180.64 134.41 177.37 C 135.15 174.81 135.22 170.88 132.09 169.94 C 128.54 168.89 124.76 169.42 121.12 169.32 M 138.06 169.29 C 137.50 174.64 137.64 180.02 137.83 185.38 C 139.51 185.37 141.20 185.35 142.89 185.34 C 143.07 179.98 143.17 174.62 142.78 169.27 C 141.20 169.29 139.63 169.29 138.06 169.29 M 151.30 169.33 C 145.98 170.80 145.04 177.63 147.01 182.02 C 150.07 188.10 161.18 187.39 162.11 180.07 C 160.89 179.87 159.68 179.42 158.44 179.51 C 156.50 180.74 154.62 182.16 152.21 182.09 C 151.27 179.24 149.88 173.89 153.96 172.99 C 156.63 173.85 159.32 175.14 162.17 174.14 C 160.51 169.78 155.65 167.73 151.30 169.33 M 169.30 169.28 C 162.04 170.93 161.61 182.92 168.42 185.44 C 171.99 186.48 176.69 186.30 179.13 183.09 C 181.01 180.21 180.97 176.38 179.93 173.21 C 178.18 169.25 173.14 168.17 169.30 169.28 M 105.83 169.50 C 105.61 174.86 105.39 180.25 105.98 185.60 C 110.22 185.59 114.47 185.61 118.71 185.61 C 118.75 184.41 118.77 183.21 118.78 182.02 C 116.17 181.79 113.55 181.64 110.93 181.62 C 110.73 177.65 110.69 173.68 110.81 169.71 C 109.15 169.63 107.49 169.54 105.83 169.50 Z" />
<path fill="#ffffff" opacity="1.00" d=" M 126.27 173.02 C 127.48 173.37 128.69 173.73 129.91 174.07 C 129.75 174.69 129.44 175.92 129.29 176.54 C 128.17 176.41 127.06 176.30 125.95 176.18 C 126.03 175.39 126.19 173.81 126.27 173.02 Z" />
<path fill="#ffffff" opacity="1.00" d=" M 169.46 173.34 C 171.25 173.22 173.72 172.33 174.88 174.26 C 176.26 176.59 175.27 179.34 174.74 181.76 C 173.29 181.81 171.82 182.03 170.38 181.79 C 167.81 179.71 169.07 176.08 169.46 173.34 Z" />
</g>
<g id="#9e9d9bff">
<path fill="#9e9d9b" opacity="1.00" d=" M 117.33 7.19 C 125.49 6.05 133.70 7.27 141.81 8.27 C 170.39 12.15 197.30 27.07 215.76 49.24 C 228.51 64.25 237.24 82.62 241.09 101.92 C 246.66 130.00 241.49 160.13 226.56 184.59 C 213.25 206.99 192.20 224.61 167.90 233.96 C 155.20 239.03 141.57 241.19 128.00 242.22 C 120.53 242.58 113.12 241.27 105.74 240.33 C 73.81 235.30 44.40 216.36 26.57 189.42 C 14.02 170.78 7.05 148.46 6.82 125.99 C 6.23 95.38 18.54 64.81 39.97 42.98 C 57.27 25.07 80.38 12.85 104.96 8.79 C 109.07 8.13 113.20 7.66 117.33 7.19 M 122.48 12.45 C 123.75 17.14 122.95 21.97 122.39 26.70 C 125.26 27.05 128.62 28.53 131.23 26.67 C 128.97 26.45 126.71 26.31 124.44 26.27 C 124.40 24.10 124.40 21.92 124.44 19.75 C 126.69 19.66 128.93 19.48 131.16 19.19 C 128.98 18.54 126.70 18.47 124.44 18.46 C 124.44 16.82 124.45 15.17 124.45 13.52 C 126.71 13.61 128.96 13.43 131.21 13.37 C 128.75 11.46 125.34 12.75 122.48 12.45 M 113.39 32.50 C 82.65 36.08 54.52 56.22 41.03 84.03 C 31.98 102.49 29.27 124.03 33.84 144.10 C 37.05 159.87 44.92 174.48 55.61 186.43 C 71.52 204.00 94.28 215.29 117.96 216.93 C 138.49 218.52 159.54 213.12 176.67 201.66 C 192.33 191.37 204.78 176.25 211.73 158.83 C 219.21 140.29 220.54 119.23 215.05 99.98 C 207.96 73.51 188.18 50.90 163.15 39.87 C 147.65 32.94 130.24 30.31 113.39 32.50 Z" />
<path fill="#9e9d9b" opacity="1.00" d=" M 80.46 72.36 C 83.59 71.66 86.80 71.45 90.01 71.55 C 96.86 71.74 103.77 71.19 110.55 72.44 C 111.18 82.55 110.15 92.71 111.14 102.81 C 120.24 103.62 129.39 102.49 138.52 102.53 C 138.88 92.40 137.95 82.23 139.02 72.13 C 148.84 71.00 158.79 71.62 168.61 72.47 C 168.69 102.60 168.68 132.72 168.62 162.85 C 162.83 164.08 156.88 163.39 151.01 163.64 C 147.24 163.59 143.39 164.11 139.69 163.22 C 138.49 161.76 138.64 159.79 138.53 158.03 C 138.36 149.88 138.81 141.72 138.43 133.58 C 129.34 133.32 120.24 133.44 111.15 133.33 C 110.18 142.18 111.07 151.10 110.69 159.97 C 110.72 161.40 110.35 163.30 108.57 163.37 C 103.41 163.92 98.19 163.48 93.01 163.66 C 89.05 163.46 84.82 164.34 81.03 162.99 C 79.79 161.32 80.09 159.02 79.89 157.05 C 79.92 135.37 79.91 113.68 79.91 92.00 C 79.97 85.45 79.53 78.87 80.46 72.36 Z" />
<path fill="#9e9d9b" opacity="1.00" d=" M 70.42 169.26 C 72.06 169.32 73.70 169.44 75.34 169.49 C 75.49 171.32 75.73 173.13 75.90 174.96 C 77.53 174.97 79.15 174.98 80.78 175.00 C 80.93 173.09 81.18 171.20 81.34 169.29 C 82.87 169.30 84.40 169.30 85.94 169.30 C 86.41 174.60 86.25 179.93 86.06 185.24 C 84.49 185.38 82.92 185.52 81.36 185.66 C 81.04 183.46 80.96 181.24 80.65 179.04 C 79.06 178.96 77.47 178.90 75.88 178.84 C 75.65 181.05 75.35 183.26 75.36 185.48 C 73.75 185.52 72.14 185.55 70.53 185.60 C 70.32 180.16 70.35 174.70 70.42 169.26 Z" />
<path fill="#9e9d9b" opacity="1.00" d=" M 89.92 169.33 C 94.24 169.36 98.56 169.33 102.88 169.32 C 103.02 170.59 103.13 171.86 103.21 173.14 C 100.25 173.23 97.28 173.19 94.32 173.45 C 94.33 173.76 94.34 174.39 94.35 174.71 C 96.99 175.07 99.65 175.07 102.31 175.17 C 102.29 176.37 102.28 177.57 102.27 178.77 C 99.91 178.87 97.54 178.92 95.18 179.05 C 94.87 179.58 94.26 180.64 93.95 181.17 C 97.05 181.62 100.17 181.80 103.30 181.87 C 103.30 182.73 103.31 184.46 103.31 185.32 C 98.77 185.57 94.22 185.55 89.69 185.30 C 89.56 179.98 89.16 174.62 89.92 169.33 Z" />
<path fill="#9e9d9b" opacity="1.00" d=" M 121.12 169.32 C 124.76 169.42 128.54 168.89 132.09 169.94 C 135.22 170.88 135.15 174.81 134.41 177.37 C 133.18 180.64 129.14 180.10 126.35 180.51 C 126.18 182.11 126.02 183.71 125.87 185.32 C 124.23 185.34 122.59 185.36 120.95 185.39 C 120.81 180.03 120.79 174.67 121.12 169.32 M 126.27 173.02 C 126.19 173.81 126.03 175.39 125.95 176.18 C 127.06 176.30 128.17 176.41 129.29 176.54 C 129.44 175.92 129.75 174.69 129.91 174.07 C 128.69 173.73 127.48 173.37 126.27 173.02 Z" />
<path fill="#9e9d9b" opacity="1.00" d=" M 138.06 169.29 C 139.63 169.29 141.20 169.29 142.78 169.27 C 143.17 174.62 143.07 179.98 142.89 185.34 C 141.20 185.35 139.51 185.37 137.83 185.38 C 137.64 180.02 137.50 174.64 138.06 169.29 Z" />
<path fill="#9e9d9b" opacity="1.00" d=" M 151.30 169.33 C 155.65 167.73 160.51 169.78 162.17 174.14 C 159.32 175.14 156.63 173.85 153.96 172.99 C 149.88 173.89 151.27 179.24 152.21 182.09 C 154.62 182.16 156.50 180.74 158.44 179.51 C 159.68 179.42 160.89 179.87 162.11 180.07 C 161.18 187.39 150.07 188.10 147.01 182.02 C 145.04 177.63 145.98 170.80 151.30 169.33 Z" />
<path fill="#9e9d9b" opacity="1.00" d=" M 169.30 169.28 C 173.14 168.17 178.18 169.25 179.93 173.21 C 180.97 176.38 181.01 180.21 179.13 183.09 C 176.69 186.30 171.99 186.48 168.42 185.44 C 161.61 182.92 162.04 170.93 169.30 169.28 M 169.46 173.34 C 169.07 176.08 167.81 179.71 170.38 181.79 C 171.82 182.03 173.29 181.81 174.74 181.76 C 175.27 179.34 176.26 176.59 174.88 174.26 C 173.72 172.33 171.25 173.22 169.46 173.34 Z" />
<path fill="#9e9d9b" opacity="1.00" d=" M 105.83 169.50 C 107.49 169.54 109.15 169.63 110.81 169.71 C 110.69 173.68 110.73 177.65 110.93 181.62 C 113.55 181.64 116.17 181.79 118.78 182.02 C 118.77 183.21 118.75 184.41 118.71 185.61 C 114.47 185.61 110.22 185.59 105.98 185.60 C 105.39 180.25 105.61 174.86 105.83 169.50 Z" />
</g>
</svg>

<?xml version="1.0" encoding="utf-8"?>
<!-- Generator: Adobe Illustrator 26.0.3, SVG Export Plug-In . SVG Version: 6.00 Build 0)  -->
<svg version="1.1" id="Layer_1" xmlns="http://www.w3.org/2000/svg" xmlns:xlink="http://www.w3.org/1999/xlink" x="0px" y="0px"
	 viewBox="0 0 250 250" style="enable-background:new 0 0 250 250;" xml:space="preserve">
<style type="text/css">
	.st0{fill:#FFFFFF;}
	.st1{fill:#9E9D9B;}
</style>
<g id="_x23_ffffffff">
	<path class="st0" d="M122.5,12.4c2.9,0.3,6.3-1,8.7,0.9c-2.2,0.1-4.5,0.2-6.8,0.2c0,1.6,0,3.3,0,4.9c2.3,0,4.5,0.1,6.7,0.7
		c-2.2,0.3-4.5,0.5-6.7,0.6c0,2.2,0,4.4,0,6.5c2.3,0,4.5,0.2,6.8,0.4c-2.6,1.9-6,0.4-8.8,0C122.9,22,123.8,17.1,122.5,12.4z"/>
	<path class="st0" d="M113.4,32.5c16.9-2.2,34.3,0.4,49.8,7.4c25,11,44.8,33.6,51.9,60.1c5.5,19.2,4.2,40.3-3.3,58.8
		c-6.9,17.4-19.4,32.5-35.1,42.8c-17.1,11.5-38.2,16.9-58.7,15.3c-23.7-1.6-46.4-12.9-62.3-30.5c-10.7-11.9-18.6-26.6-21.8-42.3
		C29.3,124,32,102.5,41,84C54.5,56.2,82.7,36.1,113.4,32.5 M80.5,72.4C79.5,78.9,80,85.4,79.9,92c0,21.7,0,43.4,0,65.1
		c0.2,2-0.1,4.3,1.1,5.9c3.8,1.3,8,0.5,12,0.7c5.2-0.2,10.4,0.3,15.6-0.3c1.8-0.1,2.2-2,2.1-3.4c0.4-8.9-0.5-17.8,0.5-26.6
		c9.1,0.1,18.2,0,27.3,0.2c0.4,8.1-0.1,16.3,0.1,24.4c0.1,1.8,0,3.7,1.2,5.2c3.7,0.9,7.6,0.4,11.3,0.4c5.9-0.2,11.8,0.4,17.6-0.8
		c0.1-30.1,0.1-60.3,0-90.4c-9.8-0.8-19.8-1.5-29.6-0.3c-1.1,10.1-0.1,20.3-0.5,30.4c-9.1,0-18.3,1.1-27.4,0.3
		c-1-10.1,0-20.3-0.6-30.4c-6.8-1.2-13.7-0.7-20.5-0.9C86.8,71.4,83.6,71.7,80.5,72.4 M70.4,169.3c-0.1,5.4-0.1,10.9,0.1,16.3
		c1.6-0.1,3.2-0.1,4.8-0.1c0-2.2,0.3-4.4,0.5-6.6c1.6,0.1,3.2,0.1,4.8,0.2c0.3,2.2,0.4,4.4,0.7,6.6c1.6-0.1,3.1-0.3,4.7-0.4
		c0.2-5.3,0.4-10.6-0.1-15.9c-1.5,0-3.1,0-4.6,0c-0.2,1.9-0.4,3.8-0.6,5.7c-1.6,0-3.2,0-4.9,0c-0.2-1.8-0.4-3.6-0.6-5.5
		C73.7,169.4,72.1,169.3,70.4,169.3 M89.9,169.3c-0.8,5.3-0.4,10.6-0.2,16c4.5,0.2,9.1,0.3,13.6,0c0-0.9,0-2.6,0-3.5
		c-3.1-0.1-6.2-0.2-9.4-0.7c0.3-0.5,0.9-1.6,1.2-2.1c2.4-0.1,4.7-0.2,7.1-0.3c0-1.2,0-2.4,0-3.6c-2.7-0.1-5.3-0.1-8-0.5
		c0-0.3,0-1,0-1.3c3-0.3,5.9-0.2,8.9-0.3c-0.1-1.3-0.2-2.6-0.3-3.8C98.6,169.3,94.2,169.4,89.9,169.3 M121.1,169.3
		c-0.3,5.3-0.3,10.7-0.2,16.1c1.6,0,3.3-0.1,4.9-0.1c0.1-1.6,0.3-3.2,0.5-4.8c2.8-0.4,6.8,0.1,8.1-3.1c0.7-2.6,0.8-6.5-2.3-7.4
		C128.5,168.9,124.8,169.4,121.1,169.3 M138.1,169.3c-0.6,5.4-0.4,10.7-0.2,16.1c1.7,0,3.4,0,5.1,0c0.2-5.4,0.3-10.7-0.1-16.1
		C141.2,169.3,139.6,169.3,138.1,169.3 M151.3,169.3c-5.3,1.5-6.3,8.3-4.3,12.7c3.1,6.1,14.2,5.4,15.1-1.9c-1.2-0.2-2.4-0.7-3.7-0.6
		c-1.9,1.2-3.8,2.7-6.2,2.6c-0.9-2.8-2.3-8.2,1.8-9.1c2.7,0.9,5.4,2.1,8.2,1.1C160.5,169.8,155.6,167.7,151.3,169.3 M169.3,169.3
		c-7.3,1.6-7.7,13.6-0.9,16.2c3.6,1,8.3,0.9,10.7-2.4c1.9-2.9,1.8-6.7,0.8-9.9C178.2,169.2,173.1,168.2,169.3,169.3 M105.8,169.5
		c-0.2,5.4-0.4,10.8,0.2,16.1c4.2,0,8.5,0,12.7,0c0-1.2,0.1-2.4,0.1-3.6c-2.6-0.2-5.2-0.4-7.8-0.4c-0.2-4-0.2-7.9-0.1-11.9
		C109.2,169.6,107.5,169.5,105.8,169.5z"/>
	<path class="st0" d="M126.3,173c1.2,0.3,2.4,0.7,3.6,1.1c-0.2,0.6-0.5,1.8-0.6,2.5c-1.1-0.1-2.2-0.2-3.3-0.4
		C126,175.4,126.2,173.8,126.3,173z"/>
	<path class="st0" d="M169.5,173.3c1.8-0.1,4.3-1,5.4,0.9c1.4,2.3,0.4,5.1-0.1,7.5c-1.5,0.1-2.9,0.3-4.4,0
		C167.8,179.7,169.1,176.1,169.5,173.3z"/>
</g>
<g id="_x23_9e9d9bff">
	<path class="st1" d="M117.3,7.2c8.2-1.1,16.4,0.1,24.5,1.1c28.6,3.9,55.5,18.8,73.9,41c12.8,15,21.5,33.4,25.3,52.7
		c5.6,28.1,0.4,58.2-14.5,82.7c-13.3,22.4-34.4,40-58.7,49.4c-12.7,5.1-26.3,7.2-39.9,8.3c-7.5,0.4-14.9-0.9-22.3-1.9
		c-31.9-5-61.3-24-79.2-50.9C14,170.8,7.1,148.5,6.8,126C6.2,95.4,18.5,64.8,40,43c17.3-17.9,40.4-30.1,65-34.2
		C109.1,8.1,113.2,7.7,117.3,7.2 M122.5,12.4c1.3,4.7,0.5,9.5-0.1,14.3c2.9,0.3,6.2,1.8,8.8,0c-2.3-0.2-4.5-0.4-6.8-0.4
		c0-2.2,0-4.4,0-6.5c2.2-0.1,4.5-0.3,6.7-0.6c-2.2-0.6-4.5-0.7-6.7-0.7c0-1.6,0-3.3,0-4.9c2.3,0.1,4.5-0.1,6.8-0.2
		C128.8,11.5,125.3,12.8,122.5,12.4 M113.4,32.5C82.7,36.1,54.5,56.2,41,84c-9,18.5-11.8,40-7.2,60.1c3.2,15.8,11.1,30.4,21.8,42.3
		c15.9,17.6,38.7,28.9,62.3,30.5c20.5,1.6,41.6-3.8,58.7-15.3c15.7-10.3,28.1-25.4,35.1-42.8c7.5-18.5,8.8-39.6,3.3-58.8
		c-7.1-26.5-26.9-49.1-51.9-60.1C147.6,32.9,130.2,30.3,113.4,32.5z"/>
	<path class="st1" d="M80.5,72.4c3.1-0.7,6.3-0.9,9.6-0.8c6.8,0.2,13.8-0.4,20.5,0.9c0.6,10.1-0.4,20.3,0.6,30.4
		c9.1,0.8,18.2-0.3,27.4-0.3c0.4-10.1-0.6-20.3,0.5-30.4c9.8-1.1,19.8-0.5,29.6,0.3c0.1,30.1,0.1,60.2,0,90.4
		c-5.8,1.2-11.7,0.5-17.6,0.8c-3.8-0.1-7.6,0.5-11.3-0.4c-1.2-1.5-1.1-3.4-1.2-5.2c-0.2-8.1,0.3-16.3-0.1-24.4
		c-9.1-0.3-18.2-0.1-27.3-0.2c-1,8.8-0.1,17.8-0.5,26.6c0,1.4-0.3,3.3-2.1,3.4c-5.2,0.6-10.4,0.1-15.6,0.3c-4-0.2-8.2,0.7-12-0.7
		c-1.2-1.7-0.9-4-1.1-5.9c0-21.7,0-43.4,0-65.1C80,85.4,79.5,78.9,80.5,72.4z"/>
	<path class="st1" d="M70.4,169.3c1.6,0.1,3.3,0.2,4.9,0.2c0.2,1.8,0.4,3.6,0.6,5.5c1.6,0,3.2,0,4.9,0c0.2-1.9,0.4-3.8,0.6-5.7
		c1.5,0,3.1,0,4.6,0c0.5,5.3,0.3,10.6,0.1,15.9c-1.6,0.1-3.1,0.3-4.7,0.4c-0.3-2.2-0.4-4.4-0.7-6.6c-1.6-0.1-3.2-0.1-4.8-0.2
		c-0.2,2.2-0.5,4.4-0.5,6.6c-1.6,0-3.2,0.1-4.8,0.1C70.3,180.2,70.3,174.7,70.4,169.3z"/>
	<path class="st1" d="M89.9,169.3c4.3,0,8.6,0,13,0c0.1,1.3,0.2,2.5,0.3,3.8c-3,0.1-5.9,0.1-8.9,0.3c0,0.3,0,0.9,0,1.3
		c2.6,0.4,5.3,0.4,8,0.5c0,1.2,0,2.4,0,3.6c-2.4,0.1-4.7,0.1-7.1,0.3c-0.3,0.5-0.9,1.6-1.2,2.1c3.1,0.4,6.2,0.6,9.4,0.7
		c0,0.9,0,2.6,0,3.5c-4.5,0.2-9.1,0.2-13.6,0C89.6,180,89.2,174.6,89.9,169.3z"/>
	<path class="st1" d="M121.1,169.3c3.6,0.1,7.4-0.4,11,0.6c3.1,0.9,3.1,4.9,2.3,7.4c-1.2,3.3-5.3,2.7-8.1,3.1
		c-0.2,1.6-0.3,3.2-0.5,4.8c-1.6,0-3.3,0-4.9,0.1C120.8,180,120.8,174.7,121.1,169.3 M126.3,173c-0.1,0.8-0.2,2.4-0.3,3.2
		c1.1,0.1,2.2,0.2,3.3,0.4c0.2-0.6,0.5-1.8,0.6-2.5C128.7,173.7,127.5,173.4,126.3,173z"/>
	<path class="st1" d="M138.1,169.3c1.6,0,3.1,0,4.7,0c0.4,5.3,0.3,10.7,0.1,16.1c-1.7,0-3.4,0-5.1,0
		C137.6,180,137.5,174.6,138.1,169.3z"/>
	<path class="st1" d="M151.3,169.3c4.3-1.6,9.2,0.4,10.9,4.8c-2.8,1-5.5-0.3-8.2-1.1c-4.1,0.9-2.7,6.2-1.8,9.1
		c2.4,0.1,4.3-1.3,6.2-2.6c1.2-0.1,2.4,0.4,3.7,0.6c-0.9,7.3-12,8-15.1,1.9C145,177.6,146,170.8,151.3,169.3z"/>
	<path class="st1" d="M169.3,169.3c3.8-1.1,8.9,0,10.6,3.9c1,3.2,1.1,7-0.8,9.9c-2.4,3.2-7.1,3.4-10.7,2.4
		C161.6,182.9,162,170.9,169.3,169.3 M169.5,173.3c-0.4,2.7-1.7,6.4,0.9,8.4c1.4,0.2,2.9,0,4.4,0c0.5-2.4,1.5-5.2,0.1-7.5
		C173.7,172.3,171.2,173.2,169.5,173.3z"/>
	<path class="st1" d="M105.8,169.5c1.7,0,3.3,0.1,5,0.2c-0.1,4-0.1,7.9,0.1,11.9c2.6,0,5.2,0.2,7.8,0.4c0,1.2,0,2.4-0.1,3.6
		c-4.2,0-8.5,0-12.7,0C105.4,180.2,105.6,174.9,105.8,169.5z"/>
</g>
</svg>
